X: 33139
T: Princess Nancy
R: jig
M: 6/8
K: Dmajor
A|:B3 BGE|EDE G2A|BAB deg|a2g ega|
ged (3efg e|dBG AGE|EDE G2A:|
B2g edB|BAB d2B|ABA AGE|ABA AGA|
B2g edB|BAB d2B|ABA AGE|EDE G2A|
B2g edB|BAB d2B|ABA ABd|e2d ega|
bag age|ged (3efg e|dBG AGE|EDE G2A||

